X:21031 
T:COLLEGE GROVE (reel), The 
B:DMI.0485
Z:Nordberg/Black
N:This is another instance where the C's that are played 
as natural today are not indicated as such in the source. 
I have taken the liberty of changing this in the setting
below. (To hear the source version, replace G with D in
the K: field.)
R:reel
%Q:1/4=180
M:C|
L:1/8
K:G
"D modal"
D2FD ADFD|Ecc2 edcA|D2FD Eddc|ABGF EDCE|
D2FD ADFD|Ecc2 edcA|DEFG Addc|ABGE EDD2||
%
fed^c Acdf|ed^cd efge|edd^c dcdf|eaag edd2|
f2df f2df|e2ce e2ce|dfeg fagb|afge fdd2||
%
faag fddf|efgf eccg|faag fddB|cAGE EDD2|
faag fddf|efgf ecce|dfeg fagb|afge fdd2||
%
f2df f2df|e2ce e2ce|f2df f2dB|cAGE EDD2|
f2df dfdf|e2ce cece|dfeg fagb|afge fdHd2|]


%%%

